icons/svg/fb.svg

<svg t="1571890005259" class="icon" viewBox="0 0 1024 1024" version="1.1" xmlns="http://www.w3.org/2000/svg" p-id="7884" width="200" height="200"><path d="M756 6.848l0 150.848-89.728 0q-49.152 0-66.272 20.576t-17.152 61.728l0 108 167.424 0-22.272 169.152-145.152 0 0 433.728-174.848 0 0-433.728-145.728 0 0-169.152 145.728 0 0-124.576q0-106.272 59.424-164.864t158.272-58.56q84 0 130.272 6.848z" p-id="7885"></path></svg>

<svg class="icon" viewBox="0 0 1024 1024" xmlns="http://www.w3.org/2000/svg" width="200" height="200"><path d="M756 6.848v150.848h-89.728q-49.152 0-66.272 20.576T582.848 240v108h167.424L728 517.152H582.848V950.88H408V517.152H262.272V348H408V223.424q0-106.272 59.424-164.864T625.696 0q84 0 130.272 6.848z"/></svg>
